X: 4051
T: Blaydon Flats
R: reel
M: 4/4
K: Dmajor
|:A,2|D2FD CDB,D|A,DFG AGFE|DAFA DAFA|gfed dcBA|
d2df ecac|BcdB AFDF|G2BG FAdB|AGFE D2:|
|:g2|fdaf ecAc|BGdB AFDF|G2BG FAdf|gfed dcBA|
d2df ecac|BcdB AFDF|1 G2BG FAdB|AGFE D2:|
2 gbgb fagb|agfe d2||
A,|D2FD CDB,D|A,DFA G2FE|DAFd Afda|gefd c2BA|
d2df ecaA|B2dB Adfa|gbfa gbag|fedc d3||
g|fdaf ecBA|dBfd cAGF|BGdB Adfa|gefd c2BA|
d2df ecAc|B2dB AdFA|G2BG FAGB|AGFE D3||

